src/lib/packages/icons/src/assets/filled/food-tray.svg

<svg xmlns="http://www.w3.org/2000/svg" width="24" height="24" fill="none"><path fill="currentColor" d="M21 17.75v.75c0 .83-.67 1.5-1.5 1.5h-15c-.83 0-1.5-.67-1.5-1.5v-.75h18ZM20 15c0 .43-.03.84-.1 1.25H4.1c-.07-.41-.1-.82-.1-1.25 0-3.9 2.79-7.14 6.48-7.85-.45-.41-.73-1-.73-1.65 0-1.24 1.01-2.25 2.25-2.25s2.25 1.01 2.25 2.25c0 .65-.28 1.24-.73 1.65C17.21 7.86 20 11.1 20 15Zm-8.75-9.5c0 .41.34.75.75.75s.75-.34.75-.75-.34-.75-.75-.75-.75.34-.75.75Zm5.46 6.1c-.75-1.2-2.09-2.08-3.58-2.34a.75.75 0 0 0-.87.61c-.07.41.2.8.61.87 1.06.19 2.05.82 2.56 1.66.15.22.39.35.64.35.14 0 .27-.04.4-.11.35-.22.46-.68.24-1.04Z"/></svg>

<svg width="24" height="24" viewBox="0 0 24 24" fill="none" xmlns="http://www.w3.org/2000/svg">
<path d="M21 17.75V18.5C21 19.33 20.33 20 19.5 20H4.5C3.67 20 3 19.33 3 18.5V17.75H21ZM20 15C20 15.43 19.97 15.84 19.9 16.25H4.10001C4.03001 15.84 4 15.43 4 15C4 11.1 6.79 7.85999 10.48 7.14999C10.03 6.73999 9.75 6.15 9.75 5.5C9.75 4.26 10.76 3.25 12 3.25C13.24 3.25 14.25 4.26 14.25 5.5C14.25 6.15 13.97 6.73999 13.52 7.14999C17.21 7.85999 20 11.1 20 15ZM11.25 5.5C11.25 5.91 11.59 6.25 12 6.25C12.41 6.25 12.75 5.91 12.75 5.5C12.75 5.09 12.41 4.75 12 4.75C11.59 4.75 11.25 5.09 11.25 5.5ZM16.71 11.6C15.96 10.4 14.62 9.51999 13.13 9.25999C12.72 9.18999 12.33 9.46 12.26 9.87C12.19 10.28 12.46 10.67 12.87 10.74C13.93 10.93 14.92 11.56 15.43 12.4C15.58 12.62 15.82 12.75 16.07 12.75C16.21 12.75 16.34 12.71 16.47 12.64C16.82 12.42 16.93 11.96 16.71 11.6Z" fill="currentColor"/>
</svg>
